flaticon/grooming/shaving.svg

<svg xmlns="http://www.w3.org/2000/svg" width="32" height="32" viewBox="0 0 24 24">
    <path d="M3.253906 3.660156L2.035156 3.660156 2.035156 5.503906C.855469 5.917969 0 7.035156 0 8.378906L0 20.949219C0 22.617188 1.34375 24 3.050781 24L8.339844 24C10.007812 24 11.390625 22.617188 11.347656 20.949219L11.347656 8.378906C11.347656 7.078125 10.53125 5.945312 9.355469 5.515625L9.355469 3.660156 8.136719 3.660156 8.136719 2.441406 11.390625 2.441406 11.390625 0 3.253906 0zM.8125 17.085938L4.882812 17.085938C5.125 17.085938 5.289062 16.921875 5.289062 16.679688 5.289062 16.433594 5.125 16.269531 4.882812 16.269531L.8125 16.269531.8125 15.050781 4.882812 15.050781C5.125 15.050781 5.289062 14.886719 5.289062 14.644531 5.289062 14.398438 5.125 14.238281 4.882812 14.238281L.8125 14.238281.8125 13.015625 2.847656 13.015625C3.089844 13.015625 3.253906 12.855469 3.253906 12.609375 3.253906 12.367188 3.089844 12.203125 2.847656 12.203125L.8125 12.203125.8125 10.578125 7.320312 10.578125 7.320312 18.710938.8125 18.710938zM10.535156 8.378906L10.535156 20.910156C10.535156 22.128906 9.558594 23.144531 8.296875 23.144531L3.050781 23.144531C1.832031 23.144531.8125 22.167969.8125 20.910156L.8125 19.527344 8.136719 19.527344 8.136719 9.761719.8125 9.761719.8125 8.339844C.8125 7.117188 1.789062 6.101562 3.050781 6.101562L3.050781 6.140625 8.296875 6.140625C9.519531 6.140625 10.535156 7.117188 10.535156 8.378906zM8.542969 4.472656L8.542969 5.289062 2.847656 5.289062 2.847656 4.472656zM4.066406.8125L10.578125.8125 10.578125 1.628906 7.320312 1.628906 7.320312 3.660156 4.066406 3.660156zM23.023438.8125L16.027344.8125C15.5.8125 15.050781 1.261719 15.050781 1.789062L15.050781 2.683594C15.050781 3.214844 15.5 3.660156 16.027344 3.660156L16.269531 3.660156C17.167969 3.660156 17.898438 4.394531 17.898438 5.289062L17.898438 6.46875 17.660156 11.390625 17.652344 11.390625 17.492188 14.644531 17.5 14.644531 17.167969 21.519531C17.125 22.167969 17.371094 22.78125 17.816406 23.269531 18.265625 23.757812 18.875 24 19.523438 24 20.175781 24 20.785156 23.757812 21.234375 23.269531 21.679688 22.78125 21.925781 22.167969 21.882812 21.519531L21.152344 6.46875 21.152344 5.289062C21.152344 4.394531 21.882812 3.660156 22.78125 3.660156L23.023438 3.660156C23.550781 3.660156 24 3.253906 24 2.683594L24 1.789062C24 1.261719 23.550781.8125 23.023438.8125zM18.710938 7.320312L20.339844 7.320312 20.523438 11.390625 18.503906 11.390625zM18.46875 12.203125L20.5625 12.203125 20.636719 13.832031 18.386719 13.832031zM20.582031 22.738281C20.296875 23.0625 19.890625 23.226562 19.484375 23.226562 19.078125 23.226562 18.671875 23.0625 18.386719 22.738281 18.101562 22.414062 17.9375 22.007812 17.980469 21.601562L18.335938 14.644531 20.671875 14.644531 20.988281 21.601562C21.03125 22.046875 20.867188 22.414062 20.582031 22.738281zM18.710938 6.46875L18.710938 5.695312 20.339844 5.695312 20.339844 6.46875zM20.375 4.882812L18.675781 4.882812C18.597656 4.417969 18.386719 3.996094 18.085938 3.660156L20.964844 3.660156C20.664062 3.996094 20.453125 4.417969 20.375 4.882812zM23.1875 2.683594C23.1875 2.765625 23.105469 2.847656 23.023438 2.847656L16.027344 2.847656C15.945312 2.847656 15.863281 2.765625 15.863281 2.683594L15.863281 1.789062C15.863281 1.707031 15.945312 1.628906 16.027344 1.628906L23.023438 1.628906C23.105469 1.628906 23.1875 1.707031 23.1875 1.789062zM23.1875 2.683594"/>
</svg>

<svg xmlns="http://www.w3.org/2000/svg" width="32" height="32" viewBox="0 0 24 24">
    <path d="M3.254 3.66H2.035v1.844A3.038 3.038 0 0 0 0 8.379v12.57A3.047 3.047 0 0 0 3.05 24h5.29c1.668 0 3.05-1.383 3.008-3.05V8.378c0-1.3-.817-2.434-1.993-2.863V3.66H8.137V2.441h3.254V0H3.254zM.812 17.086h4.07a.385.385 0 0 0 .407-.406c0-.246-.164-.41-.406-.41H.813v-1.22h4.07a.385.385 0 0 0 .406-.405c0-.247-.164-.407-.406-.407H.813v-1.222h2.035c.242 0 .406-.16.406-.407a.385.385 0 0 0-.406-.406H.813v-1.625H7.32v8.133H.812zm9.723-8.707V20.91a2.23 2.23 0 0 1-2.238 2.235H3.05A2.232 2.232 0 0 1 .812 20.91v-1.383h7.325V9.762H.812V8.34a2.23 2.23 0 0 1 2.239-2.238v.039h5.246a2.23 2.23 0 0 1 2.238 2.238zM8.543 4.473v.816H2.848v-.816zM4.066.813h6.512v.816H7.32V3.66H4.066zm0 0M23.023.813h-6.996a.992.992 0 0 0-.976.976v.895c0 .53.449.976.976.976h.243c.898 0 1.628.735 1.628 1.63v1.179l-.238 4.922h-.008l-.16 3.254h.008l-.332 6.875c-.043.648.203 1.261.648 1.75.45.488 1.059.73 1.707.73.653 0 1.262-.242 1.711-.73.446-.489.692-1.102.649-1.75l-.73-15.051v-1.18c0-.894.73-1.629 1.628-1.629h.242A.965.965 0 0 0 24 2.684v-.895a.992.992 0 0 0-.977-.976zM18.711 7.32h1.629l.183 4.07h-2.02zm-.242 4.883h2.093l.075 1.629h-2.25zm2.113 10.535a1.457 1.457 0 0 1-1.098.489c-.406 0-.812-.165-1.097-.489-.285-.324-.45-.73-.407-1.136l.356-6.957h2.336l.316 6.957c.043.445-.12.812-.406 1.136zm-1.871-16.27v-.773h1.629v.774zm1.664-1.585h-1.7a2.442 2.442 0 0 0-.59-1.223h2.88c-.3.336-.512.758-.59 1.223zm2.813-2.2a.176.176 0 0 1-.165.165h-6.996a.176.176 0 0 1-.164-.164v-.895c0-.082.082-.16.164-.16h6.996c.082 0 .165.078.165.16zm0 0"/>
</svg>
